app/img/_src/main/advantages/adv-2.svg

<svg width="60" height="60" viewBox="0 0 60 60" fill="none" xmlns="http://www.w3.org/2000/svg">
<path d="M5 56H25V59C25 59.5522 25.4478 60 26 60H55C55.5522 60 56 59.5522 56 59V43C56 42.6655 55.833 42.3535 55.5552 42.168L53.7998 41L55.5518 39.832C55.8311 39.647 55.9995 39.335 56 39V1C56 0.447754 55.5522 0 55 0H26C25.4478 0 25 0.447754 25 1V4H5C4.44775 4 4 4.44775 4 5V55C4 55.5522 4.44775 56 5 56ZM27 2H54V38.4648L51.4448 40.165C51.167 40.3506 51 40.6626 51 40.9971C51 41.3315 51.167 41.6436 51.4448 41.8291L54 43.5352V58H27V56H39C39.5522 56 40 55.5522 40 55V42H41V40H40V16H52V14H40V11H50V9H40V5C40 4.44775 39.5522 4 39 4H27V2ZM6 6H38V54H6V6Z" fill="url(#paint0_linear)"/>
<path d="M22 36C29.732 36 36 29.7319 36 22C36 14.2681 29.732 8 22 8C21.857 8 21.708 8.00879 21.5572 8.02197C13.9058 8.24512 7.85402 14.5757 7.97511 22.2295C8.09621 29.8833 14.3452 36.019 22 36ZM33.9493 21H29.23C29.1836 19.3193 28.9878 17.646 28.6451 16H32.376C33.2657 17.5288 33.8033 19.2373 33.9493 21ZM21 30V33.7998C19.7368 33.3061 18.7403 31.8999 18.0323 30H21ZM17.4302 28C17.0459 26.3589 16.8252 24.6841 16.77 23H21V28H17.4302ZM23 33.793V30H25.9771C25.9082 30.1841 25.8409 30.3721 25.7681 30.5439C25.2925 31.9399 24.3028 33.1015 23 33.793ZM23 28V23H27.229C27.1783 24.6841 26.961 26.3589 26.5811 28H23ZM29.23 23H33.9493C33.8033 24.7627 33.2657 26.4712 32.376 28H28.6451C28.9878 26.354 29.1836 24.6807 29.23 23ZM27.23 21H23V16H26.5699C26.9541 17.6411 27.1748 19.3159 27.23 21ZM23 14V10.2051C24.2632 10.6992 25.2598 12.105 25.9678 14.0049L23 14ZM21 10.2051V14H18.0323C18.7403 12.1069 19.7368 10.7002 21 10.2051ZM21 16V21H16.77C16.8252 19.3159 17.0459 17.6411 17.4302 16H21ZM14.771 21H10.0508C10.1968 19.2373 10.7344 17.5288 11.624 16H15.3628C15.0147 17.6455 14.8169 19.3188 14.771 21ZM14.771 23C14.8174 24.6807 15.0132 26.354 15.356 28H11.624C10.7344 26.4712 10.1968 24.7627 10.0508 23H14.771ZM13.0821 30H15.8902C16.2207 31.0605 16.6822 32.0757 17.2642 33.022C15.668 32.3286 14.2407 31.2978 13.0811 30H13.0821ZM26.7378 33.022C27.3194 32.0757 27.7808 31.0605 28.1109 30H30.919C29.7598 31.2973 28.333 32.3286 26.7369 33.022H26.7378ZM30.919 14H28.1109C27.7803 12.9394 27.3189 11.9243 26.7369 10.978C28.333 11.6714 29.7598 12.7026 30.919 14ZM17.2808 10.9702C16.9395 11.5117 16.6431 12.0801 16.3941 12.6699C16.2149 13.0889 16.0552 13.5381 15.9038 14.001H13.0811C14.2447 12.6978 15.6778 11.6636 17.2808 10.9702Z" fill="url(#paint1_linear)"/>
<path d="M8 39H36V41H8V39Z" fill="url(#paint2_linear)"/>
<path d="M8 43H36V45H8V43Z" fill="url(#paint3_linear)"/>
<path d="M43 40H45V42H43V40Z" fill="url(#paint4_linear)"/>
<path d="M47 40H49V42H47V40Z" fill="url(#paint5_linear)"/>
<path d="M50 44H52V56H50V44Z" fill="url(#paint6_linear)"/>
<path d="M46 44H48V56H46V44Z" fill="url(#paint7_linear)"/>
<path d="M42 44H44V52H42V44Z" fill="url(#paint8_linear)"/>
<path d="M50.293 21.2929L48.6572 22.9291L43.1641 22.0141L42.8359 23.9858L46.9189 24.6669L42.7998 28.7831L41.4438 28.1049L40.5498 29.8949L42.25 30.745L43.1001 32.4447L44.8901 31.5507L44.2168 30.2001L48.293 26.1239L49.0098 31.1449L50.9902 30.8608L50.061 24.3608L51.707 22.7148C52.0859 22.3227 52.0806 21.6986 51.6948 21.3129C51.3091 20.9272 50.6855 20.9218 50.293 21.3007V21.2929Z" fill="url(#paint9_linear)"/>
<defs>
<linearGradient id="paint0_linear" x1="30" y1="0" x2="30" y2="60" gradientUnits="userSpaceOnUse">
<stop stop-color="#8888D3"/>
<stop offset="1" stop-color="#5E60A3"/>
</linearGradient>
<linearGradient id="paint1_linear" x1="21.9867" y1="8" x2="21.9867" y2="36" gradientUnits="userSpaceOnUse">
<stop stop-color="#8888D3"/>
<stop offset="1" stop-color="#5E60A3"/>
</linearGradient>
<linearGradient id="paint2_linear" x1="22" y1="39" x2="22" y2="41" gradientUnits="userSpaceOnUse">
<stop stop-color="#8888D3"/>
<stop offset="1" stop-color="#5E60A3"/>
</linearGradient>
<linearGradient id="paint3_linear" x1="22" y1="43" x2="22" y2="45" gradientUnits="userSpaceOnUse">
<stop stop-color="#8888D3"/>
<stop offset="1" stop-color="#5E60A3"/>
</linearGradient>
<linearGradient id="paint4_linear" x1="44" y1="40" x2="44" y2="42" gradientUnits="userSpaceOnUse">
<stop stop-color="#8888D3"/>
<stop offset="1" stop-color="#5E60A3"/>
</linearGradient>
<linearGradient id="paint5_linear" x1="48" y1="40" x2="48" y2="42" gradientUnits="userSpaceOnUse">
<stop stop-color="#8888D3"/>
<stop offset="1" stop-color="#5E60A3"/>
</linearGradient>
<linearGradient id="paint6_linear" x1="51" y1="44" x2="51" y2="56" gradientUnits="userSpaceOnUse">
<stop stop-color="#8888D3"/>
<stop offset="1" stop-color="#5E60A3"/>
</linearGradient>
<linearGradient id="paint7_linear" x1="47" y1="44" x2="47" y2="56" gradientUnits="userSpaceOnUse">
<stop stop-color="#8888D3"/>
<stop offset="1" stop-color="#5E60A3"/>
</linearGradient>
<linearGradient id="paint8_linear" x1="43" y1="44" x2="43" y2="52" gradientUnits="userSpaceOnUse">
<stop stop-color="#8888D3"/>
<stop offset="1" stop-color="#5E60A3"/>
</linearGradient>
<linearGradient id="paint9_linear" x1="46.2688" y1="21.02" x2="46.2688" y2="32.4447" gradientUnits="userSpaceOnUse">
<stop stop-color="#8888D3"/>
<stop offset="1" stop-color="#5E60A3"/>
</linearGradient>
</defs>
</svg>

<svg width="60" height="60" fill="none" xmlns="http://www.w3.org/2000/svg"><path d="M5 56h20v3a1 1 0 001 1h29a1 1 0 001-1V43a1 1 0 00-.445-.832L53.8 41l1.752-1.168A1 1 0 0056 39V1a1 1 0 00-1-1H26a1 1 0 00-1 1v3H5a1 1 0 00-1 1v50a1 1 0 001 1zM27 2h27v36.465l-2.555 1.7a1 1 0 000 1.664L54 43.535V58H27v-2h12a1 1 0 001-1V42h1v-2h-1V16h12v-2H40v-3h10V9H40V5a1 1 0 00-1-1H27V2zM6 6h32v48H6V6z" fill="url(#paint0_linear)"/><path d="M22 36c7.732 0 14-6.268 14-14S29.732 8 22 8a5.13 5.13 0 00-.443.022c-7.651.223-13.703 6.554-13.582 14.208C8.096 29.883 14.345 36.019 22 36zm11.95-15h-4.72a28.372 28.372 0 00-.585-5h3.731a11.894 11.894 0 011.573 5zM21 30v3.8c-1.263-.494-2.26-1.9-2.968-3.8H21zm-3.57-2a25.608 25.608 0 01-.66-5H21v5h-3.57zM23 33.793V30h2.977c-.069.184-.136.372-.209.544A5.793 5.793 0 0123 33.793zM23 28v-5h4.229a25.584 25.584 0 01-.648 5H23zm6.23-5h4.72a11.894 11.894 0 01-1.574 5h-3.73c.342-1.646.538-3.32.584-5zm-2-2H23v-5h3.57c.384 1.641.605 3.316.66 5zM23 14v-3.795c1.263.494 2.26 1.9 2.968 3.8L23 14zm-2-3.795V14h-2.968c.708-1.893 1.705-3.3 2.968-3.795zM21 16v5h-4.23c.055-1.684.276-3.359.66-5H21zm-6.229 5h-4.72a11.895 11.895 0 011.573-5h3.739a27.826 27.826 0 00-.592 5zm0 2c.046 1.68.242 3.354.585 5h-3.732a11.895 11.895 0 01-1.573-5h4.72zm-1.689 7h2.808c.33 1.06.792 2.076 1.374 3.022A12.046 12.046 0 0113.081 30h.001zm13.656 3.022A13.348 13.348 0 0028.11 30h2.808a12.045 12.045 0 01-4.182 3.022zM30.919 14h-2.808a13.353 13.353 0 00-1.374-3.022A12.044 12.044 0 0130.919 14zm-13.638-3.03a11.78 11.78 0 00-.887 1.7c-.18.419-.339.868-.49 1.331H13.08a12.037 12.037 0 014.2-3.03z" fill="url(#paint1_linear)"/><path d="M8 39h28v2H8v-2z" fill="url(#paint2_linear)"/><path d="M8 43h28v2H8v-2z" fill="url(#paint3_linear)"/><path d="M43 40h2v2h-2v-2z" fill="url(#paint4_linear)"/><path d="M47 40h2v2h-2v-2z" fill="url(#paint5_linear)"/><path d="M50 44h2v12h-2V44z" fill="url(#paint6_linear)"/><path d="M46 44h2v12h-2V44z" fill="url(#paint7_linear)"/><path d="M42 44h2v8h-2v-8z" fill="url(#paint8_linear)"/><path d="M50.293 21.293l-1.636 1.636-5.493-.915-.328 1.972 4.083.68-4.12 4.117-1.355-.678-.894 1.79 1.7.85.85 1.7 1.79-.894-.673-1.35 4.076-4.077.717 5.02 1.98-.283-.929-6.5 1.646-1.646a1 1 0 00-1.414-1.414v-.008z" fill="url(#paint9_linear)"/><defs><linearGradient id="paint0_linear" x1="30" y1="0" x2="30" y2="60" gradientUnits="userSpaceOnUse"><stop stop-color="#8888D3"/><stop offset="1" stop-color="#5E60A3"/></linearGradient><linearGradient id="paint1_linear" x1="21.987" y1="8" x2="21.987" y2="36" gradientUnits="userSpaceOnUse"><stop stop-color="#8888D3"/><stop offset="1" stop-color="#5E60A3"/></linearGradient><linearGradient id="paint2_linear" x1="22" y1="39" x2="22" y2="41" gradientUnits="userSpaceOnUse"><stop stop-color="#8888D3"/><stop offset="1" stop-color="#5E60A3"/></linearGradient><linearGradient id="paint3_linear" x1="22" y1="43" x2="22" y2="45" gradientUnits="userSpaceOnUse"><stop stop-color="#8888D3"/><stop offset="1" stop-color="#5E60A3"/></linearGradient><linearGradient id="paint4_linear" x1="44" y1="40" x2="44" y2="42" gradientUnits="userSpaceOnUse"><stop stop-color="#8888D3"/><stop offset="1" stop-color="#5E60A3"/></linearGradient><linearGradient id="paint5_linear" x1="48" y1="40" x2="48" y2="42" gradientUnits="userSpaceOnUse"><stop stop-color="#8888D3"/><stop offset="1" stop-color="#5E60A3"/></linearGradient><linearGradient id="paint6_linear" x1="51" y1="44" x2="51" y2="56" gradientUnits="userSpaceOnUse"><stop stop-color="#8888D3"/><stop offset="1" stop-color="#5E60A3"/></linearGradient><linearGradient id="paint7_linear" x1="47" y1="44" x2="47" y2="56" gradientUnits="userSpaceOnUse"><stop stop-color="#8888D3"/><stop offset="1" stop-color="#5E60A3"/></linearGradient><linearGradient id="paint8_linear" x1="43" y1="44" x2="43" y2="52" gradientUnits="userSpaceOnUse"><stop stop-color="#8888D3"/><stop offset="1" stop-color="#5E60A3"/></linearGradient><linearGradient id="paint9_linear" x1="46.269" y1="21.02" x2="46.269" y2="32.445" gradientUnits="userSpaceOnUse"><stop stop-color="#8888D3"/><stop offset="1" stop-color="#5E60A3"/></linearGradient></defs></svg>
